!!!COM: Henri Reber
!!!CNT: Francais
!!!TXO: Francais
!!!OTL: Guitare
!!!LYR: Victor Hugo
!!!ODT: 1845/
!!!ENC: Jacob Pegg
!!!YOR: Romantic French Song 1830-1870, David Tunley, ed., New York: Garland Publishing, Inc., 1995, vol. 3
!!NB: Vocal melody and text only encoded.
!!NB: First instance of melodic material only encoded.
**kern	**silbe
*clef G2	*
*k[b-e-]	*
*M6/8	*
=2	=2
4r	.
8r	.
4r	.
{8b-	{Com-
=3	=3
2.cc	-ment,
=4	=4
(8b-	di-
8a)	|
8g	-saient~
[4.f	~ils,
=5	=5
4.f_	|
4f]}	|}
8r	.
=6	=6
{4b-	{A-
8a	-vec
(8g	nos
8b-)	|
8ee-	na-
=7	=7
(4dd	-cel-
8b-)	|
4f}	-les}
8r	.
=8	=8
{4.b-	{Fuir
4.g	les
=9	=9
4a	al-
8a	-gua-
[4.a	-zils?
=10	=10
2.a]}	|}
=11	=11
4r	.
8r	.
4r	.
{8a	{Ra-
=12	=12
[4.f	-mez,
4f]	|
8a	ra-
=13	=13
[4.f	-mez,
4f]	|
8a	ra-
=14	=14
[4.f	-mez,
8f]	|
8d	dis-
8en	-aient~
=15	=15
2.f	~el-
=16	=16
4f}	-les.}
8r	.
4r	.
8r	.
*-	*-
